static/assets/template/assets/img/icons/essential/detailed/Investment.svg

<svg height="145" viewBox="0 0 98 145" width="98" xmlns="http://www.w3.org/2000/svg"><g fill="none" fill-rule="evenodd" transform="translate(1 1)"><g fill-rule="nonzero"><circle cx="56.6" cy="33.2" r="32.7"/><circle cx="59.1" cy="35.3" r="30.6"/><path d="m53.3 120.9c-10.9 4.6-23.8 4.1-34.7-2.5s-17.3-17.8-18.1-29.7c10.9-4.6 23.8-4.1 34.7 2.5s17.2 17.8 18.1 29.7z"/><path d="m53.3 120.9c-10.9 4.6-23.8 4.1-34.7-2.5s-17.3-17.8-18.1-29.7c10.9-4.6 23.8-4.1 34.7 2.5s17.2 17.8 18.1 29.7z"/><path d="m60.3 97.3c7.1 3 15.6 2.7 22.7-1.7 7.1-4.3 11.3-11.7 11.9-19.4-7.1-3-15.6-2.7-22.7 1.7-7.2 4.4-11.4 11.7-11.9 19.4z"/><path d="m60.3 97.3c7.1 3 15.6 2.7 22.7-1.7 7.1-4.3 11.3-11.7 11.9-19.4-7.1-3-15.6-2.7-22.7 1.7-7.2 4.4-11.4 11.7-11.9 19.4z"/><path d="m53.3 120.9c-10.9 4.6-23.8 4.1-34.7-2.5s-17.3-17.8-18.1-29.7c10.9-4.6 23.8-4.1 34.7 2.5s17.2 17.8 18.1 29.7z"/><path d="m53.3 120.9c-10.9 4.6-23.8 4.1-34.7-2.5s-17.3-17.8-18.1-29.7c10.9-4.6 23.8-4.1 34.7 2.5s17.2 17.8 18.1 29.7z"/><path d="m60.3 97.3c7.1 3 15.6 2.7 22.7-1.7 7.1-4.3 11.3-11.7 11.9-19.4-7.1-3-15.6-2.7-22.7 1.7-7.2 4.4-11.4 11.7-11.9 19.4z"/><path d="m60.3 97.3c7.1 3 15.6 2.7 22.7-1.7 7.1-4.3 11.3-11.7 11.9-19.4-7.1-3-15.6-2.7-22.7 1.7-7.2 4.4-11.4 11.7-11.9 19.4z"/></g><path d="m56.7.5c18 .1 32.6 14.7 32.6 32.7 0 18.1-14.6 32.7-32.7 32.7s-32.7-14.6-32.7-32.7c0-8 2.8-15.3 7.6-20.9" stroke-linecap="round" stroke-linejoin="round" stroke-width="3"/><path d="m40.6 4.6c.9-.5 1.9-1 2.9-1.4" stroke-linecap="round" stroke-linejoin="round" stroke-width="3"/><path d="m17.4 85.7c6.1.3 12.2 2.1 17.8 5.5 10.9 6.6 17.3 17.9 18.2 29.7-10.9 4.6-23.8 4.1-34.7-2.5s-17.3-17.8-18.1-29.7c2.3-1 4.8-1.7 7.2-2.3" stroke-linecap="round" stroke-linejoin="round" stroke-width="3"/><path d="m53.3 120.9-21.9-13.4" stroke-linecap="round" stroke-linejoin="round" stroke-width="3"/><path d="m75.9 76c-1.3.5-2.5 1.1-3.8 1.9-7.1 4.3-11.3 11.7-11.9 19.4 7.1 3 15.6 2.7 22.7-1.7 7.1-4.3 11.3-11.7 11.9-19.4-3.8-1.6-8-2.3-12.1-1.9" stroke-linecap="round" stroke-linejoin="round" stroke-width="3"/><path d="m60.3 97.3 14.3-8.7" stroke-linecap="round" stroke-linejoin="round" stroke-width="3"/><path d="m56.6 65.9v76.1" stroke-linecap="round" stroke-linejoin="round" stroke-width="3"/><path d="m85.4 142h3.5" stroke-linecap="round" stroke-linejoin="round" stroke-width="3"/><path d="m27.5 142h50.2" stroke-linecap="round" stroke-linejoin="round" stroke-width="3"/><g fill-rule="nonzero" transform="translate(46 12)"><path d="m10.7 40.3c-1.6 0-2.8-1.3-2.8-2.8v-1.6c-1.6-.2-3.2-.6-4.5-1.2-1.4-.7-2.1-2.3-1.6-3.7.4-1.2 1.6-2 2.8-2 .4 0 .9.1 1.3.3.9.4 2.4.9 4.1.9 2.2 0 3.6-1.1 3.6-2.7 0-1.3-.7-2.4-3.9-3.7-4-1.6-8-3.8-8-8.8 0-3.9 2.5-7 6.5-8.1v-1.8c0-1.6 1.3-2.8 2.8-2.8s2.8 1.3 2.8 2.8v1.4c1.2.1 2.3.4 3.4.9 1.5.6 2.2 2.3 1.6 3.8-.4 1.2-1.5 1.9-2.8 1.9-.4 0-.8-.1-1.2-.2-1.1-.4-2.2-.6-3.4-.6-2.8 0-3.1 1.7-3.1 2.2 0 1.2.6 2 4.4 3.5 3.5 1.4 7.6 3.8 7.6 9.2 0 4.1-2.7 7.3-6.8 8.5v1.9c.1 1.5-1.2 2.7-2.8 2.7z"/><path d="m11 3.6c.7 0 1.3.6 1.3 1.3v2.8c1.8.1 3.2.4 4.3.9.7.3 1.1 1.2.8 1.9-.2.6-.8 1-1.4 1-.2 0-.4 0-.6-.1-1-.4-2.3-.8-4-.8-3.3 0-4.6 2-4.6 3.7 0 2.2 1.6 3.3 5.3 4.9 4.4 1.8 6.7 4 6.7 7.9 0 3.4-2.4 6.6-6.8 7.3v3.1c0 .7-.6 1.3-1.3 1.3s-1.3-.6-1.3-1.3v-3c-1.9 0-3.9-.5-5.4-1.2-.7-.3-1.1-1.1-.8-1.9.2-.6.8-1 1.4-1 .2 0 .4 0 .6.1 1.4.6 3 1 4.7 1 3 0 5.1-1.8 5.1-4.2s-1.7-3.8-4.9-5.1c-4.4-1.7-7.1-3.7-7.1-7.4 0-3.6 2.5-6.3 6.5-6.9v-3c.2-.7.8-1.3 1.5-1.3zm0-3c-2.4 0-4.3 1.9-4.3 4.3v.7c-4 1.5-6.5 5-6.5 9.2 0 6.7 6.3 9.2 9 10.2 2.9 1.2 2.9 2 2.9 2.3 0 1.2-1.9 1.2-2.1 1.2-1.5 0-2.7-.4-3.5-.8-.6-.3-1.2-.4-1.9-.4-1.9 0-3.6 1.2-4.2 3-.8 2.2.2 4.6 2.3 5.6 1.1.5 2.3.9 3.6 1.2v.3c0 2.4 1.9 4.3 4.3 4.3s4.4-1.9 4.4-4.3v-.8c4.1-1.6 6.8-5.2 6.8-9.6 0-6.4-4.9-9.1-8.5-10.6-3.5-1.4-3.5-1.9-3.5-2.1 0-.6 1.1-.7 1.6-.7 1 0 2 .2 2.9.5.6.2 1.1.3 1.7.3 1.9 0 3.5-1.1 4.2-2.9.9-2.3-.3-4.9-2.5-5.8-.8-.3-1.6-.6-2.4-.7v-.2c0-2.3-1.9-4.2-4.3-4.2z"/></g></g></svg>

<?xml version="1.0" encoding="UTF-8"?>
<svg width="98px" height="145px" viewBox="0 0 98 145" version="1.1" xmlns="http://www.w3.org/2000/svg" xmlns:xlink="http://www.w3.org/1999/xlink">
    <!-- Generator: Sketch 51.2 (57519) - http://www.bohemiancoding.com/sketch -->
    <title>Investment</title>
    <desc>Created with Sketch.</desc>
    <defs></defs>
    <g id="Page-1" stroke="none" stroke-width="1" fill="none" fill-rule="evenodd">
        <g id="Investment" transform="translate(1.000000, 1.000000)">
            <circle id="Oval" class="fill-neutral" fill-rule="nonzero" cx="56.6" cy="33.2" r="32.7"></circle>
            <circle id="Oval" class="fill-primary-200" fill-rule="nonzero" cx="59.1" cy="35.3" r="30.6"></circle>
            <path d="M53.3,120.9 C42.4,125.5 29.5,125 18.6,118.4 C7.7,111.8 1.3,100.6 0.5,88.7 C11.4,84.1 24.3,84.6 35.2,91.2 C46.1,97.8 52.4,109 53.3,120.9 Z" id="Shape" class="fill-neutral" fill-rule="nonzero"></path>
            <path d="M53.3,120.9 C42.4,125.5 29.5,125 18.6,118.4 C7.7,111.8 1.3,100.6 0.5,88.7 C11.4,84.1 24.3,84.6 35.2,91.2 C46.1,97.8 52.4,109 53.3,120.9 Z" id="Shape" class="fill-neutral" fill-rule="nonzero"></path>
            <path d="M60.3,97.3 C67.4,100.3 75.9,100 83,95.6 C90.1,91.3 94.3,83.9 94.9,76.2 C87.8,73.2 79.3,73.5 72.2,77.9 C65,82.3 60.8,89.6 60.3,97.3 Z" id="Shape" class="fill-neutral" fill-rule="nonzero"></path>
            <path d="M60.3,97.3 C67.4,100.3 75.9,100 83,95.6 C90.1,91.3 94.3,83.9 94.9,76.2 C87.8,73.2 79.3,73.5 72.2,77.9 C65,82.3 60.8,89.6 60.3,97.3 Z" id="Shape" class="fill-neutral" fill-rule="nonzero"></path>
            <path d="M53.3,120.9 C42.4,125.5 29.5,125 18.6,118.4 C7.7,111.8 1.3,100.6 0.5,88.7 C11.4,84.1 24.3,84.6 35.2,91.2 C46.1,97.8 52.4,109 53.3,120.9 Z" id="Shape" class="fill-primary-500" fill-rule="nonzero"></path>
            <path d="M53.3,120.9 C42.4,125.5 29.5,125 18.6,118.4 C7.7,111.8 1.3,100.6 0.5,88.7 C11.4,84.1 24.3,84.6 35.2,91.2 C46.1,97.8 52.4,109 53.3,120.9 Z" id="Shape" class="fill-primary-500" fill-rule="nonzero"></path>
            <path d="M60.3,97.3 C67.4,100.3 75.9,100 83,95.6 C90.1,91.3 94.3,83.9 94.9,76.2 C87.8,73.2 79.3,73.5 72.2,77.9 C65,82.3 60.8,89.6 60.3,97.3 Z" id="Shape" class="fill-primary-500" fill-rule="nonzero"></path>
            <path d="M60.3,97.3 C67.4,100.3 75.9,100 83,95.6 C90.1,91.3 94.3,83.9 94.9,76.2 C87.8,73.2 79.3,73.5 72.2,77.9 C65,82.3 60.8,89.6 60.3,97.3 Z" id="Shape" class="fill-primary-500" fill-rule="nonzero"></path>
            <path d="M56.7,0.5 C74.7,0.6 89.3,15.2 89.3,33.2 C89.3,51.3 74.7,65.9 56.6,65.9 C38.5,65.9 23.9,51.3 23.9,33.2 C23.9,25.2 26.7,17.9 31.5,12.3" id="Shape" class="stroke-primary" stroke-width="3" stroke-linecap="round" stroke-linejoin="round"></path>
            <path d="M40.6,4.6 C41.5,4.1 42.5,3.6 43.5,3.2" id="Shape" class="stroke-primary" stroke-width="3" stroke-linecap="round" stroke-linejoin="round"></path>
            <path d="M17.4,85.7 C23.5,86 29.6,87.8 35.2,91.2 C46.1,97.8 52.5,109.1 53.4,120.9 C42.5,125.5 29.6,125 18.7,118.4 C7.8,111.8 1.4,100.6 0.6,88.7 C2.9,87.7 5.4,87 7.8,86.4" id="Shape" class="stroke-primary" stroke-width="3" stroke-linecap="round" stroke-linejoin="round"></path>
            <path d="M53.3,120.9 L31.4,107.5" id="Shape" class="stroke-primary" stroke-width="3" stroke-linecap="round" stroke-linejoin="round"></path>
            <path d="M75.9,76 C74.6,76.5 73.4,77.1 72.1,77.9 C65,82.2 60.8,89.6 60.2,97.3 C67.3,100.3 75.8,100 82.9,95.6 C90,91.3 94.2,83.9 94.8,76.2 C91,74.6 86.8,73.9 82.7,74.3" id="Shape" class="stroke-primary" stroke-width="3" stroke-linecap="round" stroke-linejoin="round"></path>
            <path d="M60.3,97.3 L74.6,88.6" id="Shape" class="stroke-primary" stroke-width="3" stroke-linecap="round" stroke-linejoin="round"></path>
            <path d="M56.6,65.9 L56.6,142" id="Shape" class="stroke-primary" stroke-width="3" stroke-linecap="round" stroke-linejoin="round"></path>
            <path d="M85.4,142 L88.9,142" id="Shape" class="stroke-primary" stroke-width="3" stroke-linecap="round" stroke-linejoin="round"></path>
            <path d="M27.5,142 L77.7,142" id="Shape" class="stroke-primary" stroke-width="3" stroke-linecap="round" stroke-linejoin="round"></path>
            <g id="Group" transform="translate(46.000000, 12.000000)" fill-rule="nonzero">
                <path d="M10.7,40.3 C9.1,40.3 7.9,39 7.9,37.5 L7.9,35.9 C6.3,35.7 4.7,35.3 3.4,34.7 C2,34 1.3,32.4 1.8,31 C2.2,29.8 3.4,29 4.6,29 C5,29 5.5,29.1 5.9,29.3 C6.8,29.7 8.3,30.2 10,30.2 C12.2,30.2 13.6,29.1 13.6,27.5 C13.6,26.2 12.9,25.1 9.7,23.8 C5.7,22.2 1.7,20 1.7,15 C1.7,11.1 4.2,8 8.2,6.9 L8.2,5.1 C8.2,3.5 9.5,2.3 11,2.3 C12.5,2.3 13.8,3.6 13.8,5.1 L13.8,6.5 C15,6.6 16.1,6.9 17.2,7.4 C18.7,8 19.4,9.7 18.8,11.2 C18.4,12.4 17.3,13.1 16,13.1 C15.6,13.1 15.2,13 14.8,12.9 C13.7,12.5 12.6,12.3 11.4,12.3 C8.6,12.3 8.3,14 8.3,14.5 C8.3,15.7 8.9,16.5 12.7,18 C16.2,19.4 20.3,21.8 20.3,27.2 C20.3,31.3 17.6,34.5 13.5,35.7 L13.5,37.6 C13.6,39.1 12.3,40.3 10.7,40.3 Z" id="Shape" class="fill-neutral"></path>
                <path d="M11,3.6 C11.7,3.6 12.3,4.2 12.3,4.9 L12.3,7.7 C14.1,7.8 15.5,8.1 16.6,8.6 C17.3,8.9 17.7,9.8 17.4,10.5 C17.2,11.1 16.6,11.5 16,11.5 C15.8,11.5 15.6,11.5 15.4,11.4 C14.4,11 13.1,10.6 11.4,10.6 C8.1,10.6 6.8,12.6 6.8,14.3 C6.8,16.5 8.4,17.6 12.1,19.2 C16.5,21 18.8,23.2 18.8,27.1 C18.8,30.5 16.4,33.7 12,34.4 L12,37.5 C12,38.2 11.4,38.8 10.7,38.8 C10,38.8 9.4,38.2 9.4,37.5 L9.4,34.5 C7.5,34.5 5.5,34 4,33.3 C3.3,33 2.9,32.2 3.2,31.4 C3.4,30.8 4,30.4 4.6,30.4 C4.8,30.4 5,30.4 5.2,30.5 C6.6,31.1 8.2,31.5 9.9,31.5 C12.9,31.5 15,29.7 15,27.3 C15,24.9 13.3,23.5 10.1,22.2 C5.7,20.5 3,18.5 3,14.8 C3,11.2 5.5,8.5 9.5,7.9 L9.5,4.9 C9.7,4.2 10.3,3.6 11,3.6 Z M11,0.6 C8.6,0.6 6.7,2.5 6.7,4.9 L6.7,5.6 C2.7,7.1 0.2,10.6 0.2,14.8 C0.2,21.5 6.5,24 9.2,25 C12.1,26.2 12.1,27 12.1,27.3 C12.1,28.5 10.2,28.5 10,28.5 C8.5,28.5 7.3,28.1 6.5,27.7 C5.9,27.4 5.3,27.3 4.6,27.3 C2.7,27.3 1,28.5 0.4,30.3 C-0.4,32.5 0.6,34.9 2.7,35.9 C3.8,36.4 5,36.8 6.3,37.1 L6.3,37.4 C6.3,39.8 8.2,41.7 10.6,41.7 C13,41.7 15,39.8 15,37.4 L15,36.6 C19.1,35 21.8,31.4 21.8,27 C21.8,20.6 16.9,17.9 13.3,16.4 C9.8,15 9.8,14.5 9.8,14.3 C9.8,13.7 10.9,13.6 11.4,13.6 C12.4,13.6 13.4,13.8 14.3,14.1 C14.9,14.3 15.4,14.4 16,14.4 C17.9,14.4 19.5,13.3 20.2,11.5 C21.1,9.2 19.9,6.6 17.7,5.7 C16.9,5.4 16.1,5.1 15.3,5 L15.3,4.8 C15.3,2.5 13.4,0.6 11,0.6 Z" id="Shape" class="fill-primary"></path>
            </g>
        </g>
    </g>
</svg>
